!!!COM: Palestrina, Giovanni Perluigi da
!!!OPR: Emendemus in melius
!!!OTL: Sanctus
**kern	**kern	**kern	**kern
*Ibass	*Itenor	*Icalto	*Icant
!Bassus	!Tenor	!Altus	!Cantus
*clefF4	*clefGv2	*clefG2	*clefG2
*k[b-]	*k[b-]	*k[b-]	*k[b-]
*G:dor	*G:dor	*G:dor	*G:dor
*M4/2	*M4/2	*M4/2	*M4/2
=1	=1	=1	=1
0D	1r	0r	0r
.	[1D	.	.
=2	=2	=2	=2
2.F	1D]	0A	0r
4E	.	.	.
1D	1F	.	.
=3	=3	=3	=3
1C	1G	1c	0r
2BB-	2D	1d	.
[2D	[2F	.	.
=4	=4	=4	=4
2D]	2F]	2A	0r
4C	4E	1c	.
4BB-	4D	.	.
1AA	2E	.	.
.	2F	4B-	.
.	.	4A	.
=5	=5	=5	=5
2GG	2G	1B-	0d
1G	1B-	.	.
.	.	2G	.
4F	4A	[2d	.
4E	4G	.	.
=6	=6	=6	=6
1D	1A	4d]	1f
.	.	4e	.
.	.	1f	.
1C	1c	.	1g
.	.	2e	.
=7	=7	=7	=7
0r	1B-	2f	2d
.	.	2d	1f
.	[1A	2c	.
.	.	[2d	4e
.	.	.	4d
=8	=8	=8	=8
1r	0A]	2d]	1e
.	.	2c#	.
[1D	.	2.d	4d
.	.	.	4e
.	.	.	4f
.	.	4e	4g
=9	=9	=9	=9
1D]	1.d	0f	2a
.	.	.	2.b-
1F	.	.	.
.	.	.	4a
.	2c	.	[2a
=10	=10	=10	=10
1G	1B-	1.d	4a]
.	.	.	4g
.	.	.	2g
2D	2.A	.	2f
[2F	.	4c	[2a
.	4B-	4B-	.
=11	=11	=11	=11
2F]	2c	1A	2a]
4E	1d	.	4g
4D	.	.	4f
1E	.	1G	1g
.	2c#	.	.
=12	=12	=12	=12
0D	2d	2A	2f#
.	1d	1f#	1a
.	2d	2f#	2a
=13	=13	=13	=13
0r	1d	1f#	1a
.	1G	1g	1b-
=14	=14	=14	=14
1.D	1d	1f	2a
.	.	.	4d
.	.	.	4e
.	2r	[1d	4f
.	.	.	4g
2D	4D	.	4a
.	4E	.	4g
=15	=15	=15	=15
1D	4F	2d]	4a
.	4G	.	4b-
.	4A	2d	2.a
.	8G	.	.
.	8A	.	.
1GG	1B	[1d	.
.	.	.	4g
.	.	.	[2g
=16	=16	=16	=16
1D	1A	1d]	2g]
.	.	.	2f
2r	1G	[1d	[1b-
4GG	.	.	.
4AA	.	.	.
=17	=17	=17	=17
4BB-	2.F	2d]	2b-]
4C	.	.	.
4D	.	2d	4a
4E	4E	.	4g
2F	1D	1d	2a
2BB-	.	.	[2dd
=18	=18	=18	=18
1E-	2r	1G	2dd]
.	1G	.	2cc
1D	.	1d	2b-
.	2F	.	2a
=19	=19	=19	=19
1.G	1B-	2r	2g
.	.	4G	1b-
.	.	4A	.
.	2G	4B-	.
.	.	4c	.
2F	2A	4d	[2a
.	.	8c	.
.	.	8d	.
=20	=20	=20	=20
2E-	2B-	2e-	4a]
.	.	.	4g
2C	2c	2e-	1g
1D	1A	[1d	.
.	.	.	2f#
=21	=21	=21	=21
2GG	1G	2d]	2g
2G	.	2B-	2d
2G	2r	2B-	2d
2G	2d	2B-	2d
=22	=22	=22	=22
1F	2d	1A	1f
.	2d	.	.
1E	1c	1G	2g
.	.	.	[2g
=23	=23	=23	=23
2.D	1B-	1d	4g]
.	.	.	4f
.	.	.	2f
4E	.	.	.
4F	2A	2c	1a
4G	.	.	.
[2A	[2c	2F	.
=24	=24	=24	=24
4A]	4c]	1G	1d
4G	4B-	.	.
1G	4B-	.	.
.	8A	.	.
.	8G	.	.
.	1A	1r	1r
2F#	.	.	.
=25	=25	=25	=25
2.G	2B-	2r	0r
.	1d	2g	.
4F	.	.	.
1E-	.	2g	.
.	2c	2g	.
=26	=26	=26	=26
0D	1d	0f	2r
.	.	.	2dd
.	4D	.	2dd
.	4E	.	.
.	4F	.	2dd
.	4G	.	.
=27	=27	=27	=27
1r	4A	1e	1cc
.	4B-	.	.
.	2c	.	.
2r	1G	2d	1b-
2G	.	4d	.
.	.	4e	.
=28	=28	=28	=28
2F	0r	4f	2a
.	.	4g	.
2F	.	1a	2.cc
1G	.	.	.
.	.	.	4b-
.	.	[2g	2b-
=29	=29	=29	=29
1D	2r	2g]	2a
.	2d	1f	2a
1r	2d	.	2a
.	2c	[2e	[2g
=30	=30	=30	=30
0r	1d	2e]	4g]
.	.	.	4f
.	.	1d	2f
.	1A	.	1e
.	.	2c#	.
=31	=31	=31	=31
1BB-	1B-	2d	2d
.	.	1f	1dd
2AA	2c	.	.
2AA	2c	2e	[2cc
=32	=32	=32	=32
1BB-	1d	2d	2cc]
.	.	2.f	1b-
2F	1c	.	.
.	.	4e	.
2F	.	2f	2a
=33	=33	=33	=33
2G	1B-	2d	0b-
2G	.	2g	.
2.B-	2r	4f	.
.	.	4e	.
.	2B-	4d	.
4A	.	4c	.
=34	=34	=34	=34
2G	2d	2B	1r
2F	2d	2A	.
[1E-	2.e-	[1G	2r
.	.	.	2b-
.	4d	.	.
=35	=35	=35	=35
2E-]	2c	2G]	2cc
2D	1B-	2F	2dd
1C	.	1c	1ee-
.	2A	.	.
=36	=36	=36	=36
1BB-	2B-	2f	1dd
.	2B-	2d	.
1r	2A	2e	2cc
.	2B-	[2g	2b-
=37	=37	=37	=37
2r	0d	2g]	2a
2BB-	.	4f	2.b-
.	.	4e	.
2D	.	1f	.
.	.	.	4a
2D	.	.	[2a
=38	=38	=38	=38
1E-	1G	1B-	4a]
.	.	.	4g
.	.	.	1g
1D	1A	2d	.
.	.	2d	2f#
=39	=39	=39	=39
0C	0c	2.e-	[0g
.	.	4c	.
.	.	1e-	.
=40	=40	=40	=40
0GG	0B	0d	0g]
==	==	==	==
*-	*-	*-	*-
!!!CDT: 1525/^1526/-1594/2/2
!!!OCY: Italia
!!!AGN: Mass (Parody)
!!!AST: renaissance, vocal
!!!ASW: Antiphon
!!!PWK: Masses, Book 7
!!!RNB: Cadence finals: D
!!!YOR: Le Opere Complete, v. 23, p. 61
!!!YOO: Rome, Italy: Fratelli Scalera
!!!END: 1992//
!!!EED: John Miller
!!!YEC: Copyright 2000, John Miller
!!!YEN: United States of America
!!!YEM: Rights to all derivative electronic formats reserved.
!!!YEM: Refer to licensing agreement for further details.
!!!YEM: This file must be accompanied by the licensing agreement.
!!!YEM: A copy of the licensing agreement may be found at http://www.music-cog.ohio-state.edu/HumdrumDatabases/Palestrina/license.txt
!!!EMD: converted to Humdrum by Bret Aarden
